X:25
T:Archie Menzie's
R:Reel
C:John Lowe
M:4/4
L:1/8
K:F
FE|~F CF AFEF|Acde fcA^F|G2DG BGDG|(3Bcd ef gdBG|!
~F CF AFCF|Acde fcAF|BdGB AcFA|GECE F2:||!
fe|ffcf afef|cfag fed^f|g2 dg bg^fg|dgba gfed|!
f2 cf afef|cfag fedc|BdGB AcFA|GECE F2:||
